packages/astro-components-stencil/src/icons/account-balance-wallet.svg

<svg width="24" height="24" viewBox="0 0 24 24" fill="none" xmlns="http://www.w3.org/2000/svg">
<path fill-rule="evenodd" clip-rule="evenodd" d="M10 16V8C10 6.9 10.89 6 12 6H21V5C21 3.9 20.1 3 19 3H5C3.89 3 3 3.9 3 5V19C3 20.1 3.89 21 5 21H19C20.1 21 21 20.1 21 19V18H12C10.89 18 10 17.1 10 16ZM13 8C12.45 8 12 8.45 12 9V15C12 15.55 12.45 16 13 16H22V8H13ZM14.5 12C14.5 12.83 15.17 13.5 16 13.5C16.83 13.5 17.5 12.83 17.5 12C17.5 11.17 16.83 10.5 16 10.5C15.17 10.5 14.5 11.17 14.5 12Z" fill="black"/>
</svg>

<svg xmlns="http://www.w3.org/2000/svg" viewBox="0 0 24 24"><g xmlns="http://www.w3.org/2000/svg" id="account-balance-wallet" fill-rule="nonzero">
            <path d="M10 16V8a2 2 0 012-2h9V5c0-1.1-.9-2-2-2H5a2 2 0 00-2 2v14a2 2 0 002 2h14c1.1 0 2-.9 2-2v-1h-9a2 2 0 01-2-2zm3-8c-.55 0-1 .45-1 1v6c0 .55.45 1 1 1h9V8h-9zm3 5.5c-.83 0-1.5-.67-1.5-1.5s.67-1.5 1.5-1.5 1.5.67 1.5 1.5-.67 1.5-1.5 1.5z"/>
        </g></svg>
